X: 41293
T: Tumbledown
R: jig
M: 6/8
K: Eminor
D|:EFE EFG|FED ~G2G|ABc BAG|AGF GFD|
EFE EFG|FED dAG|FGE DEF|EFE E2D:|
|:EFE d2c-|cB2 ~A2F|GAB AGF|GFE FED|
EFE d2c-|cB2 ~A2F|GFE DEF|EFE E2D:|

